X:309
T: O TANNENBAUM O TANNENBAUM
N: E0175
O: Europa, Mitteleuropa, Deutschland, Odenwald, Neunkirchen
R: erzaehlendes Volks - Lied, Sage, Pflanzen - Maerchen
M: 2/4
L: 1/16
K: F
C2 | F2F2A2cB | A2A2G2
G2 | A2A2Bcd2 | c4z2
c2 | d2e2f2c2 | f2d2c2
cB | A2A2G2GE | F4z2
c2 | d2e2f2c2 | f2d2c2
cB | A2A2G2GE | F4z2

